app/dist/common/images/m3-brigade-acquisition-ii.svg

<svg height="18" viewBox="0 0 18 18" width="18" xmlns="http://www.w3.org/2000/svg"><path d="m0 0h18v18h-18z" fill="#f0f3fa"/><path d="m4 12v-6h1.5l.97 4.04 1-4.04h1.53v6h-1v-4.7l-1.07 4.7h-1.05l-.88-4.7v4.7zm6.3-4.63.92.27c.05-.27.28-.8.82-.8.66 0 .74.57.74.71s-.06.67-1.09 1.03v.6c.08-.02.29-.07.46-.07.23 0 .85.1.85 1.03 0 .75-.56 1.04-.85 1.04s-.88-.2-.88-.82h-1.12a2 2 0 0 0 2 1.64c1.36 0 1.8-1.24 1.85-1.86a1.52 1.52 0 0 0 -1-1.44c.26-.16.76-.63.76-1.23 0-.74-.5-1.47-1.72-1.47-.98 0-1.59.76-1.74 1.37z"/></svg>

<!-- by TradingView --><svg width="18" height="18" viewBox="0 0 18 18" xmlns="http://www.w3.org/2000/svg"><path fill="#F0F3FA" d="M0 0h18v18H0z"/><path d="M4 12V6h1.5l.97 4.04 1-4.04H9v6H8V7.3L6.93 12H5.88L5 7.3V12H4Zm6.3-4.63.92.27c.05-.27.28-.8.82-.8.66 0 .74.57.74.71s-.06.67-1.09 1.03v.6c.08-.02.29-.07.46-.07.23 0 .85.1.85 1.03 0 .75-.56 1.04-.85 1.04-.29 0-.88-.2-.88-.82h-1.12a2 2 0 0 0 2 1.64c1.36 0 1.8-1.24 1.85-1.86a1.52 1.52 0 0 0-1-1.44c.26-.16.76-.63.76-1.23 0-.74-.5-1.47-1.72-1.47-.98 0-1.59.76-1.74 1.37Z"/></svg>
